images/icons/apple-music-alt.svg

<svg fill="none" height="24" viewBox="0 0 24 24" width="24" xmlns="http://www.w3.org/2000/svg" xmlns:xlink="http://www.w3.org/1999/xlink"><clipPath id="a"><path d="m0 0h24v24h-24z"/></clipPath><g clip-path="url(#a)"><path clip-rule="evenodd" d="m23.6712 6.55562c0-.23672-.0033-.47672-.0098-.71343-.0132-.51945-.0461-1.04219-.1381-1.55507-.0921-.51945-.2466-1.00602-.4866-1.47945-.2367-.46356-.5457-.89096-.914-1.25918-.3682-.36822-.7956-.677257-1.2591-.913969-.4735-.24-.9568-.394521-1.4762-.486576-.5129-.0920546-1.0356-.1216436-1.5551-.13808199-.24-.00328767-.48-.00657534-.7167-.00986301-.2827 0-.5655 0-.8482 0h-8.86356c-.28274 0-.56548 0-.84822 0-.23672 0-.47672.00328767-.71343.00986301-.51945.01315069-1.04219.04602739-1.55507.13808199-.51945.095343-1.00602.246576-1.47616.489863-.46685.236713-.89096.545752-1.25918.913972s-.680547.79233-.917259 1.25918c-.24.47342-.394521.95671-.486576 1.47945-.0920546.51288-.1216436 1.03562-.13808199 1.55507-.00328767.23671-.00657534.47342-.00986301.71342v.84822 8.86358.8482c0 .2367.00328767.4767.00986301.7134.01315069.5195.04602739 1.0422.13808199 1.5551.092055.5194.246576 1.006.486576 1.4794.236712.4636.545749.891.913969 1.2592s.79562.6773 1.25918.914c.47343.24.95671.3945 1.47617.4866.51287.092 1.03561.1216 1.55506.1381.23672.0065.47672.0098.71343.0098.28274.0033.56548 0 .84822 0h8.86025.8482c.2368 0 .4768-.0033.7135-.0098.5194-.0132 1.0422-.0461 1.555-.1381.5195-.0921 1.0061-.2466 1.4762-.4866.4636-.2367.891-.5458 1.2592-.914s.6772-.7923.9139-1.2592c.24-.4734.3946-.9567.4866-1.4794.0921-.5129.1217-1.0356.1381-1.5551.0066-.2367.0099-.4767.0099-.7134.0033-.2827 0-.5655 0-.8482v-8.86686c.0098-.28274.0098-.56548.0098-.84822zm-6.3419 8.84708c0 .2992-.0033.5721-.0657.8713-.0625.2926-.1743.5655-.3452.812-.171.2466-.3913.4472-.6477.5984-.2597.1545-.5326.24-.8219.2992-.5458.1085-.9173.1348-1.2691.0657-.3386-.069-.6246-.2235-.8548-.434-.3386-.3123-.5523-.7331-.5983-1.1704-.0526-.5161.1183-1.0652.503-1.4728.194-.2039.4405-.365.7693-.4932.3419-.1315.72-.2137 1.3019-.3288.1545-.0296.3058-.0624.4603-.092.2005-.0395.3748-.0921.5129-.263.1413-.171.1413-.3814.1413-.5852v-5.21428c0-.39781-.1775-.5063-.5589-.43398-.2728.05261-6.12161 1.23288-6.12161 1.23288-.32876.0789-.44712.1874-.44712.59836v7.63722c0 .2992-.01644.5721-.0789.8713-.06247.2926-.17425.5654-.34521.812s-.39123.4471-.64767.5984c-.25973.1545-.5326.2433-.82192.3024-.54575.1085-.91726.1348-1.26904.0658-.33863-.069-.62466-.2268-.85479-.4373-.33863-.3123-.53589-.7331-.58521-1.1704-.0526-.5161.10192-1.0652.48986-1.4728.19398-.2039.44055-.365.76932-.4932.34192-.1315.72-.2137 1.30192-.3288.15452-.0296.30575-.0624.46027-.092.20055-.0395.3748-.0921.51288-.263.13808-.171.15452-.3715.15452-.5754 0-1.6175 0-8.80765 0-8.80765 0-.11835.00986-.19726.01644-.23671.02959-.18411.10191-.34521.23671-.45699.11178-.09205.25644-.1578.43726-.19726h.00329l7.0422-1.42356c.0625-.01315.5688-.10192.6279-.10849.3814-.03288.5951.21698.5951.62137z" fill="#fff" fill-rule="evenodd"/></g></svg>

<svg width="24" height="24" viewBox="0 0 24 24" fill="none" xmlns="http://www.w3.org/2000/svg">
<g clip-path="url(#clip0_1432_8537)">
<path fill-rule="evenodd" clip-rule="evenodd" d="M23.6712 6.55562C23.6712 6.3189 23.6679 6.0789 23.6614 5.84219C23.6482 5.32274 23.6153 4.8 23.5233 4.28712C23.4312 3.76767 23.2767 3.2811 23.0367 2.80767C22.8 2.34411 22.491 1.91671 22.1227 1.54849C21.7545 1.18027 21.3271 0.871233 20.8636 0.634521C20.3901 0.394521 19.9068 0.24 19.3874 0.147945C18.8745 0.0558904 18.3518 0.0263014 17.8323 0.00986301C17.5923 0.00657534 17.3523 0.00328767 17.1156 0C16.8329 0 16.5501 0 16.2674 0H7.40384C7.1211 0 6.83836 0 6.55562 0C6.3189 0 6.0789 0.00328767 5.84219 0.00986301C5.32274 0.0230137 4.8 0.0558904 4.28712 0.147945C3.76767 0.243288 3.2811 0.394521 2.81096 0.637808C2.34411 0.874521 1.92 1.18356 1.55178 1.55178C1.18356 1.92 0.871233 2.34411 0.634521 2.81096C0.394521 3.28438 0.24 3.76767 0.147945 4.29041C0.0558904 4.80329 0.0263014 5.32603 0.00986301 5.84548C0.00657534 6.08219 0.00328767 6.3189 0 6.5589C0 6.84164 0 7.12438 0 7.40712V16.2707C0 16.5534 0 16.8362 0 17.1189C0 17.3556 0.00328767 17.5956 0.00986301 17.8323C0.0230137 18.3518 0.0558904 18.8745 0.147945 19.3874C0.24 19.9068 0.394521 20.3934 0.634521 20.8668C0.871233 21.3304 1.18027 21.7578 1.54849 22.126C1.91671 22.4942 2.34411 22.8033 2.80767 23.04C3.2811 23.28 3.76438 23.4345 4.28384 23.5266C4.79671 23.6186 5.31945 23.6482 5.8389 23.6647C6.07562 23.6712 6.31562 23.6745 6.55233 23.6745C6.83507 23.6778 7.11781 23.6745 7.40055 23.6745H16.2608C16.5436 23.6745 16.8263 23.6745 17.109 23.6745C17.3458 23.6745 17.5858 23.6712 17.8225 23.6647C18.3419 23.6515 18.8647 23.6186 19.3775 23.5266C19.897 23.4345 20.3836 23.28 20.8537 23.04C21.3173 22.8033 21.7447 22.4942 22.1129 22.126C22.4811 21.7578 22.7901 21.3337 23.0268 20.8668C23.2668 20.3934 23.4214 19.9101 23.5134 19.3874C23.6055 18.8745 23.6351 18.3518 23.6515 17.8323C23.6581 17.5956 23.6614 17.3556 23.6614 17.1189C23.6647 16.8362 23.6614 16.5534 23.6614 16.2707V7.40384C23.6712 7.1211 23.6712 6.83836 23.6712 6.55562ZM17.3293 15.4027C17.3293 15.7019 17.326 15.9748 17.2636 16.274C17.2011 16.5666 17.0893 16.8395 16.9184 17.086C16.7474 17.3326 16.5271 17.5332 16.2707 17.6844C16.011 17.8389 15.7381 17.9244 15.4488 17.9836C14.903 18.0921 14.5315 18.1184 14.1797 18.0493C13.8411 17.9803 13.5551 17.8258 13.3249 17.6153C12.9863 17.303 12.7726 16.8822 12.7266 16.4449C12.674 15.9288 12.8449 15.3797 13.2296 14.9721C13.4236 14.7682 13.6701 14.6071 13.9989 14.4789C14.3408 14.3474 14.7189 14.2652 15.3008 14.1501C15.4553 14.1205 15.6066 14.0877 15.7611 14.0581C15.9616 14.0186 16.1359 13.966 16.274 13.7951C16.4153 13.6241 16.4153 13.4137 16.4153 13.2099V7.99562C16.4153 7.59781 16.2378 7.48932 15.8564 7.56164C15.5836 7.61425 9.73479 8.79452 9.73479 8.79452C9.40603 8.87342 9.28767 8.98192 9.28767 9.39288V17.0301C9.28767 17.3293 9.27123 17.6022 9.20877 17.9014C9.1463 18.194 9.03452 18.4668 8.86356 18.7134C8.6926 18.96 8.47233 19.1605 8.21589 19.3118C7.95616 19.4663 7.68329 19.5551 7.39397 19.6142C6.84822 19.7227 6.47671 19.749 6.12493 19.68C5.7863 19.611 5.50027 19.4532 5.27014 19.2427C4.93151 18.9304 4.73425 18.5096 4.68493 18.0723C4.63233 17.5562 4.78685 17.0071 5.17479 16.5995C5.36877 16.3956 5.61534 16.2345 5.94411 16.1063C6.28603 15.9748 6.66411 15.8926 7.24603 15.7775C7.40055 15.7479 7.55178 15.7151 7.7063 15.6855C7.90685 15.646 8.0811 15.5934 8.21918 15.4225C8.35726 15.2515 8.3737 15.051 8.3737 14.8471C8.3737 13.2296 8.3737 6.03945 8.3737 6.03945C8.3737 5.9211 8.38356 5.84219 8.39014 5.80274C8.41973 5.61863 8.49205 5.45753 8.62685 5.34575C8.73863 5.2537 8.88329 5.18795 9.06411 5.14849H9.0674L16.1096 3.72493C16.1721 3.71178 16.6784 3.62301 16.7375 3.61644C17.1189 3.58356 17.3326 3.83342 17.3326 4.23781L17.3293 15.4027Z" fill="white"/>
</g>
<defs>
<clipPath id="clip0_1432_8537">
<rect width="24" height="24" fill="white"/>
</clipPath>
</defs>
</svg>
